src/Pure/16/symbolic/actions/insert-text-symbolic.svg

<svg width="16" height="16" version="1.1" xmlns="http://www.w3.org/2000/svg">
 <path d="m5 12 3 4 3-4z" fill="#363636"/>
 <path d="m4-4e-8v1h6c1.108 0 2 0.892 2 2v1h-6c-1.662 0-3 1.338-3 3s1.338 3 3 3h7v-7c0-1.662-1.338-3-3-3zm2 5h6v4h-6c-1.108 0-2-0.892-2-2s0.892-2 2-2z" fill="#363636"/>
</svg>

<?xml version="1.0" encoding="UTF-8" standalone="no"?>
<svg
   width="16"
   height="16"
   version="1.1"
   id="svg2"
   sodipodi:docname="insert-text-symbolic.svg"
   inkscape:version="1.4.2 (ebf0e940d0, 2025-05-08)"
   xmlns:inkscape="http://www.inkscape.org/namespaces/inkscape"
   xmlns:sodipodi="http://sodipodi.sourceforge.net/DTD/sodipodi-0.dtd"
   xmlns="http://www.w3.org/2000/svg"
   xmlns:svg="http://www.w3.org/2000/svg">
  <defs
     id="defs2">
     <style
        id="current-color-scheme"
        type="text/css">
        .ColorScheme-Text { color:#363636; }
        .ColorScheme-NegativeText { color:#da4453; }
     </style>
  </defs>
  <sodipodi:namedview
     id="namedview2"
     pagecolor="#ffffff"
     bordercolor="#000000"
     borderopacity="0.25"
     inkscape:showpageshadow="2"
     inkscape:pageopacity="0.0"
     inkscape:pagecheckerboard="0"
     inkscape:deskcolor="#d1d1d1"
     inkscape:zoom="49.6875"
     inkscape:cx="8"
     inkscape:cy="8"
     inkscape:window-width="1920"
     inkscape:window-height="1010"
     inkscape:window-x="0"
     inkscape:window-y="0"
     inkscape:window-maximized="1"
     inkscape:current-layer="svg2" />
  <path
     id="path1"
     style="fill:currentColor"
     class="ColorScheme-Text"
     d="M 4 0 L 4 1 L 10 1 C 11.108 1 12 1.892 12 3 L 12 4 L 6 4 C 4.338 4 3 5.338 3 7 C 3 8.662 4.338 10 6 10 L 13 10 L 13 3 C 13 1.338 11.662 0 10 0 L 4 0 z M 6 5 L 12 5 L 12 9 L 6 9 C 4.892 9 4 8.108 4 7 C 4 5.892 4.892 5 6 5 z M 5 12 L 8 16 L 11 12 L 5 12 z " />
</svg>
